X: 36542
T: Setting Sail
R: jig
M: 6/8
K: Dmajor
|2 D2F FED|:C2G GFE|D2B BAG|AGF EDE|F2F FED|
C2G GFE|D2B BAG|AGF EDC|1 D2F FED:|2 D2D DEF||

